!!!OTL: Ein Fr&auml;ulein stand vor der Himmelst&uuml;r (1-18), S. 49
!!!id: K0094
**kern
*clefG2
*k[]
*C:
{8cc
=1
8g
8g
16g
16g
16cc
16cc
=2
8cc
8b
8a}
=3
{16dd
16dd
=4
8dd
16cc
16cc
8b
16g
16g
=5
4ee
8cc}
=6
{8cc
=7
8g
8g
16g
16g
16cc
16cc
=8
8b
8cc
8b}
=9
{16dd
16dd
=10
8dd
16cc
16cc
8b
16g
16g
=11
4cc}
8r
==
*-
!!!minrhy: 16
!!!meters: 2/4 ]  ZZ[4
!!!cut: Ein Fr&auml;ulein stand vor der Himmelst&uuml;r (1-18), S. 49
!!!reg: Luxemburg
!!!trd: KINTZELE, Guillaume: An der Ucht, Bd. 1, Luxemburg 1926
!!!rhy1: X_  X_X_XXXX  X_X_X_
!!!rhy2: XX  X_XXX_XX  X__X_
!!!key: K0094  16  C 2/4 ]  ZZ[4
!!!mod: SECHSTONSKALA DUR ?]  AMBITUS[6
!!!kad: 6+17+1
!!!akz: 5+1_+2+3_57_+2+1_
!!!fot: 'a__as"b__c__
!!!for: 'a__b__a__b__
!!!fok: '\__\__Vd_Vd_
!! PHRAS[AUFTAKTIG]
!!!fkt: Scherz-, Spottlied
!!!bem: in der Quelle mit einer 2. Stimme versehen
!! KINTZELE
!! PR[20] 2K[9] 2G[13] 3K[6] 3G[8] 4A[1] 4Ü[0] 5A[0] 6K[0] 6G[4]
!! 7K[0] 7G[0] 8A[0] MEHR[0] SI[40] ABS[80] SR[21] SP[19]
!! ST[16] 2k[5] 2g[16] 3k[8] 3g[5] 4d[4] 4ü[0] 5d[3] 6k[0] 6g[0]
!! 7k[0] 7g[0] 8d[0] mehr[0] si[40] dm[0] sr[21] sp[19]
!! 1F[62] 2F[27] 3F[4] 4F[0] LF[0] 2P[7] 3P[0] 4P[0] TRI[0] DF[4] AB[84]
!! TF[0] U3K[0] U3[4] U4[0] U4Ü[0] U5[12] U6K[0] U6[0] U7K[0] U7[9]
!! N1[22] N2K[0] N2[30] N3K[0] N3[21] N4[2] N4Ü[0] N5[0] N6K[0] N6[0]
!!!n7k: 0] N7[0] O1[0] O2K[0] O2[0] O3K[0] O3[0] HÖ[0
!!!RNB: symbol: &auml;      = a umlaut  (UTF-8: Å„)
!!!RNB: symbol: &uuml;  = u umlaut (UTF-8: Ã¼)
